src/oreo_black_cursors/dnd-no-drop.svg

<svg xmlns="http://www.w3.org/2000/svg" id="svg6031" width="32" height="32" version="1.1">
 <defs id="defs6033">
  <filter id="filter852" style="color-interpolation-filters:sRGB" width="1.098" height="1.094" x="-.05" y="-.05">
   <feGaussianBlur id="feGaussianBlur854" stdDeviation=".43"/>
  </filter>
  <filter id="filter901" style="color-interpolation-filters:sRGB" width="1.098" height="1.094" x="-.05" y="-.05">
   <feGaussianBlur id="feGaussianBlur903" stdDeviation=".43"/>
  </filter>
  <filter id="filter854" style="color-interpolation-filters:sRGB" width="1.123" height="1.117" x="-.06" y="-.06">
   <feGaussianBlur id="feGaussianBlur856" stdDeviation=".538"/>
  </filter>
  <filter id="filter829" style="color-interpolation-filters:sRGB" width="1.147" height="1.141" x="-.07" y="-.07">
   <feGaussianBlur id="feGaussianBlur831" stdDeviation=".645"/>
  </filter>
  <filter id="filter835" style="color-interpolation-filters:sRGB" width="1.192" height="1.192" x="-.1" y="-.1">
   <feGaussianBlur id="feGaussianBlur837" stdDeviation=".962"/>
  </filter>
  <filter id="filter830" style="color-interpolation-filters:sRGB" width="1.197" height="1.187" x="-.1" y="-.09">
   <feGaussianBlur id="feGaussianBlur832" stdDeviation=".74"/>
  </filter>
 </defs>
 <path id="path828" style="display:inline;opacity:0.3;fill:#000000;fill-opacity:1;stroke:none;stroke-width:1.19139028;filter:url(#filter830)" d="m 19.464844,8.5039062 c -0.874757,0.05401 -1.642803,0.8356614 -1.677735,1.7089848 L 17.626953,12 c -0.03762,0.418254 -0.42969,0.427634 -0.455078,-0.03711 L 17.09375,10.228516 C 17.05594,9.2807996 16.140596,8.4596043 15.191406,8.5195312 c -0.937595,0.05674 -1.738065,0.9617004 -1.677734,1.8964848 l 0.115234,1.955078 c 0.02935,0.421196 -0.449284,0.271007 -0.492187,-0.05274 l -0.544922,-1.29101 C 12.182307,10.171799 11.529096,9.4390293 10.636719,9.5039062 9.6548503,9.5919462 8.8650442,10.617221 9.0332031,11.585938 l 1.1660159,4.429687 c 0.006,0.151063 -0.03711,0.929687 -0.03711,0.929687 L 9.3417969,15.271484 c -1.1981297,0.899889 -2.9394409,2.051847 -2.1367188,4.597657 0.565825,1.794502 1.9082365,3.792404 3.2695309,5.125 0.0075,0.0075 0.01594,0.014 0.02344,0.02148 0.14145,0.13768 0.279018,0.260943 0.419922,0.382813 0.13737,0.11995 0.278884,0.234662 0.423828,0.345703 0.09494,0.07112 0.190001,0.150936 0.283203,0.21289 C 13.005912,26.92668 14.684501,27.5 16.5,27.5 c 4.69442,0 8.5,-3.80558 8.5,-8.5 -0.03871,-2.200032 -0.0332,-4.069741 -0.0332,-6.261719 -0.0075,-1.130496 -0.787437,-2.31412 -1.917969,-2.230468 -0.764735,0.04367 -1.347134,0.631172 -1.521484,1.374999 l -0.208985,1.158204 c -0.0907,0.326784 -0.302883,0.195429 -0.269531,-0.07422 l 0.31836,-2.56836 C 21.432571,9.3892575 20.476815,8.4387074 19.464847,8.5039052 Z"/>
 <path id="path4236-1-58-5-6-0-3" style="display:inline;opacity:1;fill:#c6c6c6;fill-opacity:1;stroke:none;stroke-width:1.19139028" d="m 19.464844,7.0039062 c -0.874757,0.05401 -1.642803,0.8356614 -1.677735,1.7089844 L 17.626953,10.5 c -0.03762,0.418254 -0.42969,0.427634 -0.455078,-0.03711 L 17.09375,8.7285156 c -0.03781,-0.947716 -0.953154,-1.7689113 -1.902344,-1.7089844 -0.937595,0.05674 -1.738065,0.9617004 -1.677734,1.8964844 l 0.115234,1.9550784 c 0.02935,0.421196 -0.449284,0.271007 -0.492187,-0.05274 L 12.591797,9.5273438 C 12.182307,8.6717987 11.529096,7.9390293 10.636719,8.0039062 9.6548503,8.0919462 8.8650442,9.1172205 9.0332031,10.085938 l 1.1660159,4.429687 c 0.006,0.151063 -0.03711,0.929687 -0.03711,0.929687 L 9.3417969,13.771484 c -1.1981297,0.899889 -2.9394409,2.051847 -2.1367188,4.597657 0.565825,1.794502 1.9082365,3.792404 3.2695309,5.125 0.0075,0.0075 0.01594,0.014 0.02344,0.02148 0.14145,0.13768 0.279018,0.260943 0.419922,0.382813 0.13737,0.11995 0.278884,0.234662 0.423828,0.345703 0.09494,0.07112 0.190001,0.150936 0.283203,0.21289 C 13.005912,25.42668 14.684501,26 16.5,26 21.19442,26 25,22.19442 25,17.5 24.96129,15.299968 24.9668,13.430259 24.9668,11.238281 24.9593,10.107785 24.179363,8.9241605 23.048831,9.0078125 c -0.764735,0.04367 -1.347134,0.6311724 -1.521484,1.3749995 l -0.208985,1.158204 c -0.0907,0.326784 -0.302883,0.195429 -0.269531,-0.07422 l 0.31836,-2.5683595 c 0.06538,-1.009179 -0.890376,-1.9597291 -1.902344,-1.8945313 z"/>
 <path id="path831" style="color:#000000;font-style:normal;font-variant:normal;font-weight:normal;font-stretch:normal;font-size:medium;line-height:normal;font-family:sans-serif;font-variant-ligatures:normal;font-variant-position:normal;font-variant-caps:normal;font-variant-numeric:normal;font-variant-alternates:normal;font-feature-settings:normal;text-indent:0;text-align:start;text-decoration:none;text-decoration-line:none;text-decoration-style:solid;text-decoration-color:#000000;letter-spacing:normal;word-spacing:normal;text-transform:none;writing-mode:lr-tb;direction:ltr;text-orientation:mixed;dominant-baseline:auto;baseline-shift:baseline;text-anchor:start;white-space:normal;shape-padding:0;clip-rule:nonzero;display:inline;overflow:visible;visibility:visible;opacity:0.3;isolation:auto;mix-blend-mode:normal;color-interpolation:sRGB;color-interpolation-filters:linearRGB;solid-color:#000000;solid-opacity:1;vector-effect:none;fill:#000000;fill-opacity:1;fill-rule:nonzero;stroke:none;stroke-width:4;stroke-linecap:round;stroke-linejoin:miter;stroke-miterlimit:4;stroke-dasharray:none;stroke-dashoffset:0;stroke-opacity:1;color-rendering:auto;image-rendering:auto;shape-rendering:auto;text-rendering:auto;enable-background:accumulate;filter:url(#filter835)" d="m 25.960938,5.4804968 a 2.0002,2.0002 0 0 0 -1.375,0.6054687 L 4.5859375,26.085963 a 2.0002,2.0002 0 1 0 2.828125,2.828124 L 27.414062,8.9140905 A 2.0002,2.0002 0 0 0 25.960938,5.4804968 Z"/>
 <path id="path826" style="fill:none;stroke:#f44336;stroke-width:4;stroke-linecap:round;stroke-linejoin:miter;stroke-miterlimit:4;stroke-dasharray:none;stroke-opacity:1" d="M 26,6 6,26"/>
</svg>

<svg xmlns="http://www.w3.org/2000/svg" viewBox="0 0 32 32"><defs><filter id="b" width="1.192" height="1.192" x="-.1" y="-.1" color-interpolation-filters="sRGB"><feGaussianBlur stdDeviation=".962"/></filter><filter id="a" width="1.197" height="1.187" x="-.1" y="-.09" color-interpolation-filters="sRGB"><feGaussianBlur stdDeviation=".74"/></filter></defs><path d="M19.4648 8.504c-.8747.054-1.6428.8356-1.6777 1.7089L17.627 12c-.0377.4183-.4297.4276-.4551-.0371l-.0782-1.7344c-.0378-.9477-.9531-1.7689-1.9023-1.709-.9376.0568-1.738.9617-1.6777 1.8965l.1152 1.955c.0294.4213-.4493.2711-.4922-.0526l-.5449-1.291c-.4095-.8556-1.0627-1.5884-1.955-1.5235-.982.088-1.7718 1.1133-1.6036 2.082l1.166 4.4297c.006.151-.037.9297-.037.9297l-.8204-1.6738c-1.1981.8999-2.9394 2.0518-2.1367 4.5976.5658 1.7945 1.9082 3.7924 3.2695 5.125.0075.0075.016.014.0234.0215.1415.1377.279.261.42.3828.1373.12.2789.2347.4238.3457.095.0712.19.151.2832.213 1.381.9696 3.0595 1.5429 4.875 1.5429 4.6944 0 8.5-3.8056 8.5-8.5-.0387-2.2-.0332-4.0697-.0332-6.2617-.0075-1.1305-.7874-2.3141-1.918-2.2305-.7647.0437-1.3471.6312-1.5215 1.375l-.209 1.1582c-.0906.3268-.3028.1954-.2695-.0742l.3184-2.5684c.0654-1.0091-.8904-1.9597-1.9024-1.8945z" opacity=".3" filter="url(#a)"/><path d="M19.4648 7.004c-.8747.054-1.6428.8356-1.6777 1.7089L17.627 10.5c-.0377.4183-.4297.4276-.4551-.0371l-.0782-1.7344c-.0378-.9477-.9531-1.7689-1.9023-1.709-.9376.0568-1.738.9617-1.6777 1.8965l.1152 1.955c.0294.4213-.4493.2711-.4922-.0526l-.5449-1.291c-.4095-.8556-1.0627-1.5884-1.955-1.5235-.982.088-1.7718 1.1133-1.6036 2.082l1.166 4.4297c.006.151-.037.9297-.037.9297l-.8204-1.6738c-1.1981.8999-2.9394 2.0518-2.1367 4.5976.5658 1.7945 1.9082 3.7924 3.2695 5.125.0075.0075.016.014.0234.0215.1415.1377.279.261.42.3828.1373.12.2789.2347.4238.3457.095.0712.19.151.2832.213C13.006 25.4266 14.6845 26 16.5 26c4.6944 0 8.5-3.8056 8.5-8.5-.0387-2.2-.0332-4.0697-.0332-6.2617-.0075-1.1305-.7874-2.3141-1.918-2.2305-.7647.0437-1.3471.6312-1.5215 1.375l-.209 1.1582c-.0906.3268-.3028.1954-.2695-.0742l.3184-2.5684c.0654-1.0091-.8904-1.9597-1.9024-1.8945z" fill="#c6c6c6"/><path style="line-height:normal;font-variant-ligatures:normal;font-variant-position:normal;font-variant-caps:normal;font-variant-numeric:normal;font-variant-alternates:normal;font-feature-settings:normal;text-indent:0;text-align:start;text-decoration-line:none;text-decoration-style:solid;text-decoration-color:#000;text-transform:none;text-orientation:mixed;white-space:normal;shape-padding:0;isolation:auto;mix-blend-mode:normal;solid-color:#000;solid-opacity:1" d="M25.961 5.4805a2.0002 2.0002 0 00-1.375.6055l-20 20a2.0002 2.0002 0 102.828 2.828l20-20a2.0002 2.0002 0 00-1.453-3.4335z" color="#000" font-weight="400" font-family="sans-serif" overflow="visible" opacity=".3" enable-background="accumulate" filter="url(#b)"/><path d="M26 6L6 26" fill="none" stroke="#f44336" stroke-width="4" stroke-linecap="round"/></svg>
